!! George Gerswhin, "Let's Call the Whole Thing Off" from
!! "Bumper Book of George Gerswhin,"
!! London: Chappell Music Ltd., 1987; pp.206-209
**kern
*M2/2
*MM[Allegretto]
=1
!! Verse- brightly with major caffeine injection
4f#
4g
8a
4b
8a
=2
4g
8f#
[8e
8e]
4f#
8g
=3
4a
4b
4cc#
4dd
=4
2.cc#
4b
=5
4dd
4dd
8dd
4dd
8dd
=6
8b
[8b
4.b]
8r
4b
=7
8cc#
4cc#
8cc#
4cc#
4cc#
=8
1a
=9
4f#
4g
8a
4b
8a
=10
4g
8f#
[8e
8e]
4f#
8g
=11
4a
4b
4cc#
4dd
=12
2.ee
4dd
=13
4cc#
4ee
4aa
4cc#
=14
4b
4dd
8g#
8g#
4b
=15
1a
=16
4a
4g
4f#
4e
=17
[1d
=18
4d]
4r
2r
!! Refrain
=19
4g
8e
[8f#
8f#]
4f#
8e
=20
4g
8a
[8b
8b]
4.b
=21
4g
8e
[8f#
8f#]
4f#
8e
=22
4g
8a
[8b
8b]
4.b
=23
8dd
8g
4r
8dd
8gg
4r
=24
8dd
8gg
4r
8dd
8gg
4r
=25
4dd
8.cc#
16b
4a
4g
=26
2.a
4r
=27
8g
4g
8e
8f#
4f#
8e
=28
8g
4g
8a
8b
4.b
=29
8g
4g
8e
8f#
4f#
8e
=30
8g
4g
8a
8b
4b
8b
=31
8dd
8g
8r
8g
8dd
8g
8r
8g
=32
8dd
8gg
8r
8g
8dd
8g
4r
=33
4dd
8.cc#
16b
4a
4g
=34
2g
4r
4g
=35
1ee
=36
8.dd
16cc#
8.b
16cc#
4dd
4dd
=37
4b
4b
4cn
4cn
=38
2.a
4e
=39
1ee
=40
8.dd
16cc#
8.b
16cc#
4dd
4dd
=41
4b
4b
4ccn
4ccn
=42
2.a
8.d
16d
=43
8g
4
8e
8f#
4f#
8e
=44
8g
4g
8a
8b
4.b
=45
8g
4
8e
8f#
4f#
8e
=46
8g
4g
8a
8b
4.b
=47
8dd
8g
4r
8dd
8g
4r
=48
8.dd
16dd
8.g
16g
8dd
4.g
=49
8.dd
16dd
8.cc#
16b
8.cc#
16b
4a
=50
2.b
4r
=51
4ee
8.dd
16cc#
4b
4a
!! First ending.
=52
[2g
4g]
4r
!! Refrain
=19
4g
8e
[8f#
8f#]
4f#
8e
=20
4g
8a
[8b
8b]
4.b
=21
4g
8e
[8f#
8f#]
4f#
8e
=22
4g
8a
[8b
8b]
4.b
=23
8dd
8g
4r
8dd
8gg
4r
=24
8dd
8gg
4r
8dd
8gg
4r
=25
4dd
8.cc#
16b
4a
4g
=26
2.a
4r
=27
8g
4g
8e
8f#
4f#
8e
=28
8g
4g
8a
8b
4.b
=29
8g
4g
8e
8f#
4f#
8e
=30
8g
4g
8a
8b
4b
8b
=31
8dd
8g
8r
8g
8dd
8g
8r
8g
=32
8dd
8gg
8r
8g
8dd
8g
4r
=33
4dd
8.cc#
16b
4a
4g
=34
2g
4r
4g
=35
1ee
=36
8.dd
16cc#
8.b
16cc#
4dd
4dd
=37
4b
4b
4cn
4cn
=38
2.a
4e
=39
1ee
=40
8.dd
16cc#
8.b
16cc#
4dd
4dd
=41
4b
4b
4ccn
4ccn
=42
2.a
8.d
16d
=43
8g
4
8e
8f#
4f#
8e
=44
8g
4g
8a
8b
4.b
=45
8g
4
8e
8f#
4f#
8e
=46
8g
4g
8a
8b
4.b
=47
8dd
8g
4r
8dd
8g
4r
=48
8.dd
16dd
8.g
16g
8dd
4.g
=49
8.dd
16dd
8.cc#
16b
8.cc#
16b
4a
=50
2.b
4r
=51
4ee
8.dd
16cc#
4b
4a
!! Second ending.
=52
[2g
4g]
4r
====
*-
